X:5753
T:Salamanca Reel, The
O:england
R:reel
D:Bothy Band 1975.
M:C|
K:D
AD (3FED AD (3FED|Adcd fdcd|BE~E2 BE~E2|Beed cdeg|
fB~B2 fB~B2|fgfe dfag|fdec dBAG|1 FGEF D2dB:|2 FGEF D2fg||
|:afdg bgeg|fdec dcBc|Addc defg|(3aba gb a2fg|
~a3f ~g3e|~f3e dfag|fdec dBAG|1 FGEF D2fg:|2 FGEF D2dB||
